X:16
T: HEIL DIR IM SIEGERKRANZ
N: B0015
O: Europa, Mitteleuropa, Deutschland, Preussen
R: politisch, national, Vaterlands - Lied, Hymne
M: 3/4
L: 1/8
K: G
 | G2G2A2 | F3GA2 |
B2B2c2 | B3AG2 |
A2G2F2 | G4z2 |
d2d2d2 | d3cB2 |
c2c2c2 | c3BA2 |
B2cBAG | B3cd2 |
ecB2A2 | G4z2

@@@ Tune index: 1819
